_PROJECT/BUILD/img/icons/ic-ship.svg

<svg xmlns="http://www.w3.org/2000/svg" width="26" height="32"><path d="M13 0a13 13 0 0 1 10.08 21.2C20.7 24.13 13 32 13 32S5.24 24.1 2.86 21.14A13 13 0 0 1 13 0z" fill-rule="evenodd" fill="#0068b8"/><circle cx="13" cy="13" r="11" fill="#fff"/><path d="M21.41 13.35a.46.46 0 0 0-.36-.18h-1.34v-4a.42.42 0 0 0-.45-.45h-.45V7.36a.42.42 0 0 0-.45-.45h-.45V6A.455.455 0 0 0 17 6v.89h-1.32a.42.42 0 0 0-.45.45V8.7h-.45a.42.42 0 0 0-.45.45v.45H5.84a.42.42 0 0 0-.45.45v3.13h-.44a.46.46 0 0 0-.36.18.67.67 0 0 0-.09.45l1.79 5.37a.49.49 0 0 0 .45.27h12.52a.49.49 0 0 0 .45-.27l1.79-5.38a.67.67 0 0 0-.09-.45zM8.88 17.73a.81.81 0 1 1 .81-.81.8.8 0 0 1-.81.81zm1-4.56H6.29v-.89h3.58zm0-1.79H6.29v-.89h3.58zm1.7 6.35a.81.81 0 1 1 .81-.81.8.8 0 0 1-.82.81zm2.77-4.56h-3.59v-.89h3.58zm0-1.79h-3.59v-.89h3.58zm1.78-3.58h1.79v.9h-1.79zm2.68 5.37h-3.57V9.59h3.58v3.58z" fill="#0068b8"/></svg>

<svg xmlns="http://www.w3.org/2000/svg" width="26" height="32" viewBox="0 0 26 32"><defs><style>.cls-1,.cls-3{fill:#0068b8;}.cls-1{fill-rule:evenodd;}.cls-2{fill:#fff;}</style></defs><title>ic-ship</title><g id="bk"><path class="cls-1" d="M13,0a13,13,0,0,1,10.08,21.2C20.7,24.13,13,32,13,32S5.24,24.1,2.86,21.14A13,13,0,0,1,13,0Z" transform="translate(0 0)"/><circle class="cls-2" cx="13" cy="13" r="11"/></g><g id="ship"><path class="cls-3" d="M21.41,13.35a.46.46,0,0,0-.36-.18H19.71v-4a.42.42,0,0,0-.45-.45h-.45V7.36a.42.42,0,0,0-.45-.45h-.45V6A.45.45,0,0,0,17,6v.89H15.68a.42.42,0,0,0-.45.45V8.7h-.45a.42.42,0,0,0-.45.45v.45H5.84a.42.42,0,0,0-.45.45v3.13H4.95a.46.46,0,0,0-.36.18.67.67,0,0,0-.09.45l1.79,5.37a.49.49,0,0,0,.45.27H19.26a.49.49,0,0,0,.45-.27L21.5,13.8A.67.67,0,0,0,21.41,13.35ZM8.88,17.73a.81.81,0,1,1,.81-.81A.8.8,0,0,1,8.88,17.73Zm1-4.56H6.29v-.89H9.87Zm0-1.79H6.29v-.89H9.87Zm1.7,6.35a.81.81,0,1,1,.81-.81A.8.8,0,0,1,11.57,17.73Zm2.77-4.56H10.76v-.89h3.58Zm0-1.79H10.76v-.89h3.58ZM16.13,7.8h1.79V8.7H16.13Zm2.68,5.37H15.24V9.59h3.58v3.58Z" transform="translate(0 0)"/></g></svg>
